X:1
T: Mrs. Fordyce of Ayton's Strathspey
C:
R:Strathspey
Q: 128
K:A
M:4/4
L:1/16
|:C2|A,3A A3G A3E C2A,2|B,B3 B3A GE3 FG3|A3G AE3 F3E FC3|DEF2 E3D C2A,2 A,2C2|
A,3A A3G A3E C2A,2|B,B3 B3A GE3 FG3|Ac3 AE3 FA3 EC3|Df3 e3d c2A2 A2e2|
ce3 Ac3 df3 Bd3|c3e ABcA GB3 EB3|ce3 Ac3 df3 Bd3|c3A cBAG A2A,2 A,2d2|
ce3 Ac3 df3 Bd3|c3e ABcA GB3 E=G3|FA3 DF3 GB3 Ed3|cde2 B3d c2A2 A2:|
